X:679
T: NUN WILL ICH MARIA GRUESSEN
N: E2081
O: Europa, Mitteleuropa, Deutschland, Baden, Merzhausen
R: geistlich, Marien - Lied
M: 4/4
L: 1/8
K: F
 | GBB2G2C2 | Acc2A2F2 |
GBB2G2C2 | Acc2A2F2 |
d4f2d2 | c4f2
c2 | A2A2GFGA | F4z4

@@@ Tune index: 5363
